Sweet-Rainbow/icons/libreoffice-main.svg

<?xml version="1.0" encoding="UTF-8" standalone="no"?>
<!-- Generator: Gravit.io -->

<svg
   xmlns:dc="http://purl.org/dc/elements/1.1/"
   xmlns:cc="http://creativecommons.org/ns#"
   xmlns:rdf="http://www.w3.org/1999/02/22-rdf-syntax-ns#"
   xmlns:svg="http://www.w3.org/2000/svg"
   xmlns="http://www.w3.org/2000/svg"
   xmlns:sodipodi="http://sodipodi.sourceforge.net/DTD/sodipodi-0.dtd"
   xmlns:inkscape="http://www.inkscape.org/namespaces/inkscape"
   style="isolation:isolate"
   viewBox="0 0 36 36"
   width="48"
   height="48"
   version="1.1"
   id="svg9"
   sodipodi:docname="libreoffice-main.svg"
   inkscape:version="0.92.4 (5da689c313, 2019-01-14)">
  <metadata
     id="metadata15">
    <rdf:RDF>
      <cc:Work
         rdf:about="">
        <dc:format>image/svg+xml</dc:format>
        <dc:type
           rdf:resource="http://purl.org/dc/dcmitype/StillImage" />
        <dc:title></dc:title>
      </cc:Work>
    </rdf:RDF>
  </metadata>
  <defs
     id="defs13" />
  <sodipodi:namedview
     pagecolor="#ffffff"
     bordercolor="#666666"
     borderopacity="1"
     objecttolerance="10"
     gridtolerance="10"
     guidetolerance="10"
     inkscape:pageopacity="0"
     inkscape:pageshadow="2"
     inkscape:window-width="640"
     inkscape:window-height="480"
     id="namedview11"
     showgrid="false"
     inkscape:zoom="29.365243"
     inkscape:cx="25.325443"
     inkscape:cy="32"
     inkscape:current-layer="svg9"
     units="px" />
  <linearGradient
     id="_lgradient_16"
     x1="0"
     y1="0.5"
     x2="1"
     y2="0.5"
     gradientTransform="matrix(40,0,0,44,2,2)"
     gradientUnits="userSpaceOnUse">
    <stop
       offset="0%"
       stop-opacity="1"
       style="stop-color:rgb(24,208,173)"
       id="stop2" />
    <stop
       offset="90.44964029999998%"
       stop-opacity="1"
       style="stop-color:rgb(7,195,242)"
       id="stop4" />
  </linearGradient>
  <g
     id="g826"
     transform="matrix(0.81818182,0,0,0.81818182,-3.9999997e-8,-1.6363637)">
    <path
       id="path7"
       d="M 38,21.86 V 39 c 0,1.656 -1.344,3 -3,3 H 9 C 7.344,42 6,40.656 6,39 V 9 C 6,7.344 7.344,6 9,6 h 12.21 c 0.552,0 1.326,0.307 1.728,0.685 l 14.334,13.49 C 37.674,20.553 38,21.308 38,21.86 Z M 31,6 V 6 C 29.896,6 29,5.104 29,4 v 0 c 0,-1.104 0.896,-2 2,-2 v 0 h 6 c 2.76,0 5,2.24 5,5 v 6 0 c 0,1.104 -0.896,2 -2,2 v 0 c -1.104,0 -2,-0.896 -2,-2 V 13 9 C 38,7.344 36.656,6 35,6 Z M 42,21.14 V 41 c 0,2.76 -2.24,5 -5,5 H 7 C 4.24,46 2,43.76 2,41 V 7 C 2,4.24 4.24,2 7,2 h 14.79 c 1.104,0 2.653,0.614 3.456,1.371 L 40.544,17.769 C 41.347,18.526 42,20.036 42,21.14 Z M 27,29 v 0 c 1.104,0 2,0.896 2,2 v 0 c 0,1.104 -0.896,2 -2,2 v 0 H 17 c -1.104,0 -2,-0.896 -2,-2 v -14 0 c 0,-1.104 0.896,-2 2,-2 v 0 c 1.104,0 2,0.896 2,2 v 0 11 c 0,0.552 0.448,1 1,1 z"
       style="fill:url(#_lgradient_16);fill-rule:evenodd"
       inkscape:connector-curvature="0" />
  </g>
</svg>

<?xml version="1.0" encoding="UTF-8" standalone="no"?><!-- Generator: Gravit.io --><svg xmlns="http://www.w3.org/2000/svg" xmlns:xlink="http://www.w3.org/1999/xlink" style="isolation:isolate" viewBox="0 0 48 48" width="48pt" height="48pt"><linearGradient id="_lgradient_16" x1="0" y1="0.5" x2="1" y2="0.5" gradientTransform="matrix(40,0,0,44,2,2)" gradientUnits="userSpaceOnUse"><stop offset="0%" stop-opacity="1" style="stop-color:rgb(24,208,173)"/><stop offset="90.44964029999998%" stop-opacity="1" style="stop-color:rgb(7,195,242)"/></linearGradient><path d=" M 38 21.86 L 38 39 C 38 40.656 36.656 42 35 42 L 9 42 C 7.344 42 6 40.656 6 39 L 6 9 C 6 7.344 7.344 6 9 6 L 21.21 6 C 21.762 6 22.536 6.307 22.938 6.685 L 37.272 20.175 C 37.674 20.553 38 21.308 38 21.86 L 38 21.86 L 38 21.86 Z  M 31 6 L 31 6 C 29.896 6 29 5.104 29 4 L 29 4 C 29 2.896 29.896 2 31 2 L 31 2 L 37 2 C 39.76 2 42 4.24 42 7 L 42 13 L 42 13 C 42 14.104 41.104 15 40 15 L 40 15 C 38.896 15 38 14.104 38 13 L 38 13 L 38 9 C 38 7.344 36.656 6 35 6 L 31 6 L 31 6 Z  M 42 21.14 L 42 41 C 42 43.76 39.76 46 37 46 L 7 46 C 4.24 46 2 43.76 2 41 L 2 7 C 2 4.24 4.24 2 7 2 L 21.79 2 C 22.894 2 24.443 2.614 25.246 3.371 L 40.544 17.769 C 41.347 18.526 42 20.036 42 21.14 L 42 21.14 L 42 21.14 Z  M 27 29 L 27 29 C 28.104 29 29 29.896 29 31 L 29 31 C 29 32.104 28.104 33 27 33 L 27 33 L 17 33 C 15.896 33 15 32.104 15 31 L 15 17 L 15 17 C 15 15.896 15.896 15 17 15 L 17 15 C 18.104 15 19 15.896 19 17 L 19 17 L 19 28 C 19 28.552 19.448 29 20 29 L 27 29 Z " fill-rule="evenodd" fill="url(#_lgradient_16)"/></svg>
